assets/icons/svg/icon_mini_object.svg

<?xml version="1.0" encoding="UTF-8" standalone="no"?>
<!-- Created with Inkscape (http://www.inkscape.org/) -->

<svg
   xmlns:dc="http://purl.org/dc/elements/1.1/"
   xmlns:cc="http://creativecommons.org/ns#"
   xmlns:rdf="http://www.w3.org/1999/02/22-rdf-syntax-ns#"
   xmlns:svg="http://www.w3.org/2000/svg"
   xmlns="http://www.w3.org/2000/svg"
   xmlns:sodipodi="http://sodipodi.sourceforge.net/DTD/sodipodi-0.dtd"
   xmlns:inkscape="http://www.inkscape.org/namespaces/inkscape"
   width="16"
   height="12"
   viewBox="0 0 16 12"
   id="svg2"
   version="1.1"
   inkscape:version="0.92.2 (5c3e80d, 2017-08-06)"
   inkscape:export-filename="/home/djrm/Projects/godot/tools/editor/icons/icon_add_track.png"
   inkscape:export-xdpi="45"
   inkscape:export-ydpi="45"
   sodipodi:docname="icon_mini_object.svg">
  <defs
     id="defs4" />
  <sodipodi:namedview
     id="base"
     pagecolor="#ffffff"
     bordercolor="#666666"
     borderopacity="1.0"
     inkscape:pageopacity="0.0"
     inkscape:pageshadow="2"
     inkscape:zoom="22.627418"
     inkscape:cx="12.449821"
     inkscape:cy="3.8668469"
     inkscape:document-units="px"
     inkscape:current-layer="layer1"
     showgrid="true"
     units="px"
     inkscape:snap-bbox="true"
     inkscape:bbox-paths="true"
     inkscape:bbox-nodes="true"
     inkscape:snap-bbox-edge-midpoints="true"
     inkscape:snap-bbox-midpoints="false"
     inkscape:snap-object-midpoints="true"
     inkscape:snap-center="true"
     inkscape:window-width="1920"
     inkscape:window-height="1016"
     inkscape:window-x="0"
     inkscape:window-y="27"
     inkscape:window-maximized="1"
     inkscape:object-nodes="true"
     inkscape:snap-smooth-nodes="true"
     inkscape:document-rotation="0">
    <inkscape:grid
       type="xygrid"
       id="grid3336" />
  </sodipodi:namedview>
  <metadata
     id="metadata7">
    <rdf:RDF>
      <cc:Work
         rdf:about="">
        <dc:format>image/svg+xml</dc:format>
        <dc:type
           rdf:resource="http://purl.org/dc/dcmitype/StillImage" />
        <dc:title />
      </cc:Work>
    </rdf:RDF>
  </metadata>
  <g
     inkscape:label="Layer 1"
     inkscape:groupmode="layer"
     id="layer1">
    <path
       style="fill:#79f3e8;fill-opacity:1;stroke:none;stroke-width:2;stroke-linecap:butt;stroke-linejoin:round;stroke-miterlimit:4;stroke-dasharray:none;stroke-opacity:1"
       d="m 6,2 v 5 3 H 8 A 3,3 0 0 0 11,7 3,3 0 0 0 8,4 V 2 Z M 6,7 A 3,3 0 0 0 3,4 3,3 0 0 0 0,7 3,3 0 0 0 3,10 3,3 0 0 0 6,7 Z m 7,-3 v 5 a 1.0000174,1.0000174 0 0 1 -1,1 h -1 v 2 h 1 A 3,3 0 0 0 15,9 V 4 Z M 3,6 A 1.0000174,1.0000174 0 0 1 4,7 1.0000174,1.0000174 0 0 1 3,8 1.0000174,1.0000174 0 0 1 2,7 1.0000174,1.0000174 0 0 1 3,6 Z M 8,6 A 1.0000174,1.0000174 0 0 1 9,7 1.0000174,1.0000174 0 0 1 8,8 Z"
       id="path4843"
       inkscape:connector-curvature="0" />
  </g>
</svg>

<?xml version="1.0" encoding="UTF-8" standalone="no"?>
<!-- Created with Inkscape (http://www.inkscape.org/) -->

<svg
   xmlns:dc="http://purl.org/dc/elements/1.1/"
   xmlns:cc="http://creativecommons.org/ns#"
   xmlns:rdf="http://www.w3.org/1999/02/22-rdf-syntax-ns#"
   xmlns:svg="http://www.w3.org/2000/svg"
   xmlns="http://www.w3.org/2000/svg"
   xmlns:sodipodi="http://sodipodi.sourceforge.net/DTD/sodipodi-0.dtd"
   xmlns:inkscape="http://www.inkscape.org/namespaces/inkscape"
   width="16"
   height="12"
   viewBox="0 0 16 12"
   id="svg2"
   version="1.1"
   inkscape:version="0.92+devel unknown"
   inkscape:export-filename="/home/djrm/Projects/godot/tools/editor/icons/icon_add_track.png"
   inkscape:export-xdpi="45"
   inkscape:export-ydpi="45"
   sodipodi:docname="icon_mini_object.svg">
  <defs
     id="defs4" />
  <sodipodi:namedview
     id="base"
     pagecolor="#ffffff"
     bordercolor="#666666"
     borderopacity="1.0"
     inkscape:pageopacity="0.0"
     inkscape:pageshadow="2"
     inkscape:zoom="45.254836"
     inkscape:cx="1.6598832"
     inkscape:cy="5.8428771"
     inkscape:document-units="px"
     inkscape:current-layer="layer1"
     showgrid="true"
     units="px"
     inkscape:snap-bbox="true"
     inkscape:bbox-paths="true"
     inkscape:bbox-nodes="true"
     inkscape:snap-bbox-edge-midpoints="true"
     inkscape:snap-bbox-midpoints="false"
     inkscape:snap-object-midpoints="true"
     inkscape:snap-center="true"
     inkscape:window-width="1920"
     inkscape:window-height="1016"
     inkscape:window-x="0"
     inkscape:window-y="27"
     inkscape:window-maximized="1"
     inkscape:object-nodes="true"
     inkscape:snap-smooth-nodes="true"
     inkscape:document-rotation="0">
    <inkscape:grid
       type="xygrid"
       id="grid3336" />
  </sodipodi:namedview>
  <metadata
     id="metadata7">
    <rdf:RDF>
      <cc:Work
         rdf:about="">
        <dc:format>image/svg+xml</dc:format>
        <dc:type
           rdf:resource="http://purl.org/dc/dcmitype/StillImage" />
        <dc:title />
      </cc:Work>
    </rdf:RDF>
  </metadata>
  <g
     inkscape:label="Layer 1"
     inkscape:groupmode="layer"
     id="layer1"
     transform="translate(0,-1040.3622)">
    <path
       style="fill:#79f3e8;fill-opacity:1;stroke:none;stroke-width:2;stroke-linecap:butt;stroke-linejoin:round;stroke-miterlimit:4;stroke-dasharray:none;stroke-opacity:1"
       d="M 6 2 L 6 7 L 6 10 L 8 10 A 3 3 0 0 0 11 7 A 3 3 0 0 0 8 4 L 8 2 L 6 2 z M 6 7 A 3 3 0 0 0 3 4 A 3 3 0 0 0 0 7 A 3 3 0 0 0 3 10 A 3 3 0 0 0 6 7 z M 13 4 L 13 9 A 1.0000174 1.0000174 0 0 1 12 10 L 11 10 L 11 12 L 12 12 A 3 3 0 0 0 15 9 L 15 4 L 13 4 z M 3 6 A 1.0000174 1.0000174 0 0 1 4 7 A 1.0000174 1.0000174 0 0 1 3 8 A 1.0000174 1.0000174 0 0 1 2 7 A 1.0000174 1.0000174 0 0 1 3 6 z M 8 6 A 1.0000174 1.0000174 0 0 1 9 7 A 1.0000174 1.0000174 0 0 1 8 8 L 8 6 z "
       transform="translate(0,1040.3622)"
       id="path4843" />
  </g>
</svg>
